X:508
T:MacLauchlane's Scotch Measure
R:Country Dances
B:The Athole Collection
M:C|
L:1/8
K:D
F>E|D2 DF EDEF|A2 (E2E2)F>E|D2 DF EDEF|AFED d2 d>e|
f>edf edBe|dBAF E2 F>E|DEFG ABdA|F2D2D2:|
|:f>d|d2a2 fgaf|b2 (e2e2)f>e|d2a2 fgab|agfe d2d>e|
f>edf e>dBe|dBAF E2 F>E|DEFG ABdA|F2D2D2:|

